X: 5590
T: Busindre
R: reel
M: 4/4
K: Edorian
|:~B3e Bfed|~B3e Bfed|cAAc eAce|dcde fddf|
~B3e Bfed|~B3e Bfed|cAAc eAce|1 cddc dcdf:|2 cddc dcdf||
|:~d3B ABdA|BddB ABdB|~c3B ABcd|effe dfcf|
~d3B ABdA|BddB ABdB|~c3B ABcd|1 efcf d2ec:|2 efcf d2ed||

